app/images/arrow.svg

<svg width="43" height="40" viewBox="0 0 43 40" fill="none" xmlns="http://www.w3.org/2000/svg">
<path d="M43 40H0L16.7 0H43V40Z" fill="#E30B0B"/>
<path d="M27.0001 25.3333L26.0601 24.3933L29.7801 20.6667H21.6667V19.3333H29.7801L26.0601 15.6067L27.0001 14.6667L32.3334 20L27.0001 25.3333Z" fill="white"/>
</svg>

<svg width="43" height="40" fill="none" xmlns="http://www.w3.org/2000/svg"><path d="M43 40H0L16.7 0H43v40z" fill="#E30B0B"/><path d="M27 25.333l-.94-.94 3.72-3.726h-8.113v-1.334h8.113l-3.72-3.726.94-.94L32.333 20 27 25.333z" fill="#fff"/></svg>
